X: 1
T: This Gloom on my Soul
T: Tha m'aigne fo ghruaim
C:
R: air, waltz
Z: 2015 John Chambers <jc:trillian.mit.edu>
M: 3/4
L: 1/8
K: A
a>g "A"|\
f2 e2 c2 | B3 z c>B | A2 F2 E2 | F3 z c>e |\
f2 c2 e2 | B4 A2 | A6- | A2 !fine!z2 :|
c>e "B"|\
f2 e2 f2 | e3 z a>g | f2 e2 c2 | e3 z f>a |\
b2 f2 a2 | e4 c2 | B6- | B2 "d.C."z2 |]
%a>g |\
%f2 e2 c2 | B3 z c>B | A2 F2 E2 | F3 z c>e |\
%f2 c2 e2 | B4 A2 | A6- | A2 z2 |]
